X:113
T:King's Head. ThoH.113, The
Q:1/2=100
M:3/2
L:1/8
B:Thompson's Compleat Collection of 120 Favourite Hornpipes.
Z:Village Music Project, Simon Wilson 2016
O:England.
K:A
A,4C2EDC2A,2|F2B4A2G4|AcBd cedfe2a2|ecBAE2G2A4:|
|:aece AcBAB2E2|bf^df dfbfg2e2|aece AcBAB2G2|ceac Bagba4:|
|:AGAE F=GFED2F2|BABF GAGFE2G2|cBcG ABAGF2f2|ecdB cABGA4:|
|:efedc2a2B2g2|cdcBA2c2B2E2|F=GFED2F2^G2|A2C2D2E2A,4:|

